symbols/web/auto_awesome_motion/materialsymbolsoutlined/auto_awesome_motion_wght200gradN25fill1_40px.svg

<svg xmlns="http://www.w3.org/2000/svg" height="40" width="40"><path d="M5.208 23.292V7.542q0-.959.688-1.646.687-.688 1.687-.688h15.709v1.334H7.583q-.375 0-.687.312-.313.313-.313.729v15.709Zm6.042 6.041v-15.75q0-.958.688-1.666.687-.709 1.687-.709h15.708v1.375H13.625q-.375 0-.687.313-.313.312-.313.687v15.75Zm21.208 5.459H19.667q-1 0-1.688-.688-.687-.687-.687-1.687V19.625q0-.958.687-1.667.688-.708 1.688-.708h12.791q.959 0 1.646.708.688.709.688 1.667v12.792q0 1-.688 1.687-.687.688-1.646.688Z"/></svg>

<svg xmlns="http://www.w3.org/2000/svg" height="40" width="40"><path d="M5.208 23.292V7.542Q5.208 6.583 5.896 5.896Q6.583 5.208 7.583 5.208H23.292V6.542H7.583Q7.208 6.542 6.896 6.854Q6.583 7.167 6.583 7.583V23.292ZM11.25 29.333V13.583Q11.25 12.625 11.938 11.917Q12.625 11.208 13.625 11.208H29.333V12.583H13.625Q13.25 12.583 12.938 12.896Q12.625 13.208 12.625 13.583V29.333ZM32.458 34.792H19.667Q18.667 34.792 17.979 34.104Q17.292 33.417 17.292 32.417V19.625Q17.292 18.667 17.979 17.958Q18.667 17.25 19.667 17.25H32.458Q33.417 17.25 34.104 17.958Q34.792 18.667 34.792 19.625V32.417Q34.792 33.417 34.104 34.104Q33.417 34.792 32.458 34.792Z"/></svg>
